X:568
T: EI LIPPLE LOSS DER NO ROTHA
N: E0535
O: Europa, Mitteleuropa, Deutschland, Wuerttemberg
R: Liebes - Lied
M: 6/8
L: 1/16
K: F
C2 | F4F2E3FG2 | F6C4
C2 | A4A2G3AB2 | A6z4
C2 | F4F2E3FG2 | F6C4
C2 | A4A2G3AB2 | A6z6 |
c2B2A2d3cB2
B2A2G2c3BA2 | C2D2E2F4

@@@ Tune index: 4218
